X:1
T:Glorious the ray glancing over the ocean
T:Glorious the ray glancing over the ocean
T:Sung by Mrs Atkins
T:Reeve
C:Reeve
%%score ( 1 2 )
L:1/8
M:3/8
K:C
V:1 treble 
V:2 treble 
V:1
 GcB | c>de | d>ec | B>AG | A (c/>B/)c | G (c/>B/)c | (d/e/) (f/e/) (d/c/) | (c{dc}B) z | GcB | %9
w: Glo- rious the|ray glanc- ing|o- ver the|o- cean that|bids Hill * and|Val- ley * dis-|play * each * gay *|hue! *|Grace- ful the|
 c>de | Ad^c | d>ef | gfe | edc | AdB | c2 c' | c'/g/e/g/f/e/ | c2 d | d>cB | B>AG | ABc | %21
w: Or- ange Grove|waves in slow|mo- tion with|joy as it|hails the fresh|Morn- ing in|view. *||* Yet|vain- ly her|beau- ties does|na- ture im-|
 B2 B/c/ | d>cB | BAG | A>G (A/B/) | G2 z | Bed | c>BA | Adc | (B>A)G | GcB | c>de | Adc | %33
w: \-part but for|Love's chear- ing|Sun- shine that|reigns in the *|heart.|All his de-|light if kind|love lend his|aid * and|all his des-|pair if fond|hopes are be-|
 !fermata!c!fermata!BG | g>fe | e>dc | dcd | (e/d/c/d/) (e/f/) | g>fe | e>dc | d>c (d/e/) | c3 | %42
w: tray'd. * All|all his de-|\-light if kind|love lend his|aid * * * and *|all is des-|pair if fond|hopes are be- *|tray'd.|
 f/>e/ d/f/d/f/ | e/>d/ c/g/e/g/ | a/g/f/g/a/b/ | c'3!D.C.! |] %46
w: ||||
V:2
 x3 | x3 | x3 | x3 | x3 | x3 | x3 | x3 | x3 | x3 | x3 | x3 | x3 | x3 | x3 | x3 | x3 | x3 | x3 | %19
 x3 | x3 | x3 | x3 | x3 | x3 | x3 | x3 | x3 | x3 | x3 | x3 | x3 | x3 | x3 | x3 | x3 | x3 | x3 | %38
 x3 | x3 | x3 | c>ge/g/ | x3 | x3 | x3 | x3 |] %46

